X: 1
T: the Left Handed Tushkar
C: Ronnie Cooper
F: http://www.thesession.org/tunes/display/7361 2009-5-31
D: "Shetland Fiddle Music" by School Of Scottish Studies, University Of Edinburgh
M: 4/4
L: 1/8
R: reel
K: A
|: EG | AGAc  BEE/E/E | AEAc  eAce | dcdf e<aga | fB^df e2 EG  |
        AGAc  BEE/E/E | AEAc  eAce | dcdf efge  | a2 A2 A2    :|
   cd | e<aga eAce    | df^ef Bfdf | eaga eAce  | fB^df e2 c=d |
        eaga  eAce    | df^ef Bfdf | eagf efge  | a2 A2 A2    ||
   cd | eaga  eAce    | df^ef Bfdf | eaga eAce  | fB^df e2 EG  |
        AGAc  BEE/E/E | AEAc  eAce | dcdf efge  | a2 A2 A2    |]

%%sep 1 1 500

